X:691
T:Sligo Maid
C:Joe Buchanan's Scottish Tome - Page 218.3
I:218 3
Z:Carl Allison
R:Reel
L:1/8
M:4/4
K:G
"D"A2 BA "G"Bdef | "C"ge"G"dB "D7"AGEG | "G"G2 BG DGBG | "G"DEGA "D7"BAdA |
"D"A2 BA "G"Bdef | "C"ge"G"dB "D7"BGEF | "G"B2> G2 A2 "D7"AE | "G"DEGA "D7"BA A2 :|
"Am7"eaag a2 ga | "G"bg"D"af "D7"gfed | "C"eggf g2 ge | "G"dega "D7"bgaa |
"Am7"eaaa a2 ga | "G"bgab "D7"aged | "Am"eg ((3ggg) "C"edBd | "G"dBgB "D7"BA A2 :|

